X: 34858
T: Robbery Of Chester Jail, The
R: reel
M: 4/4
K: Eminor
BEGB FGAD|BEGB AFDF|BEGB FGAD|Beed e3 b|agfg eBBB|
cEGB AGFG|1 EFGA BAGB|AGFG EFGA:|2 EFGA .B2 BA|B/A/G FG EFGA||
B/c/d ed eeef|.g2 ga begb|afff gceg|fBBB AGFG|
Beed eeef|.g2 ga begb|afff gceB|AGFG EFGA|
B/c/d ed eeef|.g2 ga begb|afff gceg|fBBB AGFG|
Beed .e2 eb|agfg eBBB|.c2 BA ABBB|AGFG EFGA||

